svg/person bouncing ball medium-dark skin tone.svg

<?xml version="1.0" encoding="UTF-8" standalone="no"?>
<svg
   width="128px"
   height="128px"
   version="1.1"
   xml:space="preserve"
   style="fill-rule:evenodd;clip-rule:evenodd;stroke-linejoin:round;stroke-miterlimit:2;"
   id="svg27"
   sodipodi:docname="person bouncing ball medium-dark skin tone.svg"
   inkscape:version="1.3 (0e150ed6c4, 2023-07-21)"
   xmlns:inkscape="http://www.inkscape.org/namespaces/inkscape"
   xmlns:sodipodi="http://sodipodi.sourceforge.net/DTD/sodipodi-0.dtd"
   xmlns="http://www.w3.org/2000/svg"
   xmlns:svg="http://www.w3.org/2000/svg"><defs
     id="defs27"><clipPath
       clipPathUnits="userSpaceOnUse"
       id="clipPath27"><ellipse
         id="ellipse28"
         cx="24.540001"
         cy="92.010002"
         rx="13.12"
         ry="12.75"
         style="fill:#ed6c30" /></clipPath></defs><sodipodi:namedview
     id="namedview27"
     pagecolor="#ffffff"
     bordercolor="#000000"
     borderopacity="0.25"
     inkscape:showpageshadow="2"
     inkscape:pageopacity="0.0"
     inkscape:pagecheckerboard="0"
     inkscape:deskcolor="#d1d1d1"
     inkscape:zoom="5.7341941"
     inkscape:cx="67.228279"
     inkscape:cy="47.173151"
     inkscape:window-width="1366"
     inkscape:window-height="697"
     inkscape:window-x="-8"
     inkscape:window-y="-8"
     inkscape:window-maximized="1"
     inkscape:current-layer="svg27" /><path
     d="M120.76,92.92L117.69,109.42L115.16,108.95C112.548,108.465 110.636,106.165 110.636,103.508C110.636,103.167 110.667,102.826 110.73,102.49L112.79,91.44L120.76,92.92Z"
     style="fill:#4568ad;fill-rule:nonzero;"
     id="path1" /><path
     d="M89.42,87.75L80.11,94.54L62.49,72.14L73.45,64.14L89.42,87.75Z"
     style="fill:#9b643c;fill-rule:nonzero"
     id="path2" /><path
     d="M112.79,91.44L111.13,100.3L83.99,96.9L86.09,85.58L112.79,91.44Z"
     style="fill:#9b643c;fill-rule:nonzero"
     id="path3" /><g
     transform="matrix(0.807702,-0.589591,0.589591,0.807702,-37.4393,67.51)"
     id="g3"><circle
       cx="84.77"
       cy="91.15"
       r="5.75"
       style="fill:#9b643c"
       id="circle3" /></g><g
     transform="matrix(0.807702,-0.589591,0.589591,0.807702,-27.1031,53.1812)"
     id="g4"><circle
       cx="67.97"
       cy="68.14"
       r="6.78"
       style="fill:#fbc11b;"
       id="circle4" /></g><path
     d="M105.12,89.75L103.34,99.32L111.13,100.3L112.79,91.44L105.12,89.75Z"
     style="fill:#e0e0e0;fill-rule:nonzero;"
     id="path4" /><path
     d="M63.13,61.51C59.53,64.14 58.74,69.19 61.37,72.78L70.46,84.59L82.89,75.52L74.41,63.27C71.78,59.67 66.73,58.88 63.13,61.51Z"
     style="fill:#1d8cc8;fill-rule:nonzero;"
     id="path5" /><g
     id="g9"><path
       d="M31.73,61.64L34.68,67.4L47.04,61.63L43.64,54.98L31.73,61.64Z"
       style="fill:#9b643c;fill-rule:nonzero"
       id="path6" /><path
       d="M48.66,60.17L42.26,56.32L51.96,39.22L59.22,43.59L48.66,60.17Z"
       style="fill:#9b643c;fill-rule:nonzero"
       id="path7" /><g
       transform="matrix(0.515427,-0.856933,0.856933,0.515427,-27.8825,67.1797)"
       id="g7"><circle
         cx="45.46"
         cy="58.24"
         r="3.73"
         style="fill:#9b643c"
         id="circle7" /></g><path
       d="M25.14,68.78L25.04,68.58C24.713,67.943 24.542,67.237 24.542,66.521C24.542,64.831 25.494,63.277 27,62.51L29.3,61.33C29.937,61.003 30.643,60.832 31.359,60.832C33.049,60.832 34.603,61.784 35.37,63.29L35.47,63.49C36.61,65.71 35.73,68.43 33.51,69.56L31.21,70.74C29.007,71.864 26.27,70.98 25.14,68.78Z"
       style="fill:#9b643c;fill-rule:nonzero"
       id="path8" /><g
       transform="matrix(0.515427,-0.856933,0.856933,0.515427,-8.54477,67.7012)"
       id="g8"><circle
         cx="55.59"
         cy="41.4"
         r="4.23"
         style="fill:#fbc11b;"
         id="circle8" /></g><path
       d="M58.42,36.71C56,35.25 52.86,36.04 51.4,38.46L46.74,46.67L55.09,51.69L60.16,43.73C61.62,41.3 60.84,38.16 58.42,36.71Z"
       style="fill:#bf3f0c;fill-rule:nonzero;"
       id="path9" /></g><g
     id="g14"><path
       d="M57.85,128L41.07,127.96L41.08,125.39C41.089,122.352 43.592,119.858 46.63,119.86L57.87,119.88L57.85,128Z"
       style="fill:#4568ad;fill-rule:nonzero;"
       id="path10" /><path
       d="M57.89,95.48L48.17,89.3L62.59,64.71L74.04,71.99L57.89,95.48Z"
       style="fill:#9b643c;fill-rule:nonzero"
       id="path11" /><path
       d="M57.87,119.89L48.86,119.87L47.29,92.55L58.8,92.57L57.87,119.89Z"
       style="fill:#9b643c;fill-rule:nonzero"
       id="path12" /><g
       transform="matrix(0.536504,-0.843897,0.843897,0.536504,-53.3848,87.5711)"
       id="g12"><circle
         cx="53.03"
         cy="92.39"
         r="5.75"
         style="fill:#9b643c"
         id="circle12" /></g><g
       transform="matrix(0.536504,-0.843897,0.843897,0.536504,-26.0147,89.3264)"
       id="g13"><circle
         cx="68.31"
         cy="68.35"
         r="6.78"
         style="fill:#fbc11b;"
         id="circle13" /></g><path
       d="M58.14,112.04L48.41,112.02L48.86,119.87L57.87,119.89L58.14,112.04Z"
       style="fill:#e0e0e0;fill-rule:nonzero;"
       id="path13" /><path
       d="M72.72,61.42C68.984,59.046 63.956,60.165 61.58,63.9L53.9,76.67L66.88,84.92L75.19,72.56C77.59,68.8 76.48,63.82 72.72,61.42Z"
       style="fill:#42ade7;fill-rule:nonzero;"
       id="path14" /></g><g
     id="g17"><path
       d="M58.83,25.25L60.41,33.73C60.69,35.22 59.71,36.65 58.22,36.92L55.97,37.34C54.69,37.58 53.41,36.88 52.92,35.66L47.14,21.21L58.83,25.25Z"
       style="fill:#9b643c;fill-rule:nonzero"
       id="path15" /><path
       d="M57.91,14.92L59.65,32.31L48.31,33.53C43.04,34.1 38.36,30.14 38.05,24.85L37.67,18.44C37.32,12.51 42.17,7.58 48.1,7.81L50.46,7.9C54.35,8.07 57.52,11.06 57.91,14.92Z"
       style="fill:#9b643c;fill-rule:nonzero"
       id="path16" /><path
       d="M42.27,22.03C42.33,22.8 41.86,23.47 41.22,23.52C40.58,23.57 40.01,22.99 39.95,22.21C39.89,21.44 40.36,20.77 41,20.72C41.64,20.67 42.21,21.26 42.27,22.03"
       style="fill:#312d2d;fill-rule:nonzero"
       id="path17" /></g><path
     d="M57.49,33.29C56.79,33.48 56.11,33.67 55.4,33.87C51.26,34.38 49.21,38.52 50.55,42.56C53.18,51.06 54.92,59.62 55.78,68.08C55.881,69.133 56.776,69.946 57.834,69.946C58.022,69.946 58.209,69.921 58.39,69.87C64.27,68.23 70.13,66.59 75.94,64.95C74.08,55.94 71.22,46.84 67.36,37.83C65.85,33.81 61.1,31.59 57.49,33.29Z"
     style="fill:#e65100;fill-rule:nonzero;"
     id="path18" /><g
     id="g22"><path
       d="M86.32,57.39L91.03,52.96L82.05,42.68L76.61,47.8L86.32,57.39Z"
       style="fill:#9b643c;fill-rule:nonzero"
       id="path19" /><path
       d="M80.2,41.53L78.28,48.75L59.16,44.19L61.33,36L80.2,41.53Z"
       style="fill:#9b643c;fill-rule:nonzero"
       id="path20" /><g
       transform="matrix(0.256998,-0.966412,0.966412,0.256998,15.2416,110.115)"
       id="g20"><circle
         cx="79.24"
         cy="45.14"
         r="3.73"
         style="fill:#9b643c"
         id="circle20" /></g><path
       d="M95,61.73L94.84,61.88C93.037,63.576 90.159,63.491 88.46,61.69L86.69,59.81C84.994,58.007 85.079,55.129 86.88,53.43L87.04,53.28C88.843,51.584 91.721,51.669 93.42,53.47L95.19,55.35C96.9,57.17 96.82,60.03 95,61.73Z"
       style="fill:#9b643c;fill-rule:nonzero"
       id="path21" /><g
       transform="matrix(0.256998,-0.966412,0.966412,0.256998,6.01507,88.0097)"
       id="g21"><circle
         cx="60.25"
         cy="40.09"
         r="4.23"
         style="fill:#fbc11b;"
         id="circle21" /></g><path
       d="M54.95,38.68C54.22,41.41 55.85,44.21 58.58,44.93L67.76,47.12L70.27,37.7L61.21,35.04C58.47,34.33 55.67,35.95 54.95,38.68Z"
       style="fill:#bf3f0c;fill-rule:nonzero;"
       id="path22" /></g><ellipse
     id="a"
     cx="24.540001"
     cy="92.010002"
     rx="13.12"
     ry="12.75"
     style="fill:#ed6c30" /><g
     id="g25"
     clip-path="url(#clipPath27)"><path
       d="m 21.81,105.46 c 0,0 -7.66,-8.21 -4.65,-20.09 1.25,-4.93 5.28,-6.38 5.28,-6.38 h 2.78 c 0,0 -5.51,1.05 -6.66,7.18 -2.1,11.22 7.37,19.6 7.37,19.6 z"
       style="fill:#f79329;fill-rule:nonzero"
       id="path23" /><path
       d="m 15.89,81.78 c 0,0 -0.28,2.18 2.63,2.18 6.11,0 9.52,-3.97 14.41,-2.72 l -2.55,-1.27 c 0,0 -1.47,-0.28 -2.74,0.13 -1.28,0.41 -5.78,2.74 -8.61,2.78 -3.01,0.05 -1.8,-2.05 -1.8,-2.05 z m -4.92,14.18 c 0,0 1.13,-6.79 6.31,-7.34 4.37,-0.47 7.46,1.59 10.42,3.73 5.35,3.87 7.86,8.78 7.86,8.78 l -1.83,2.74 c 0,0 -1.41,-4.41 -7.59,-10.17 -2.33,-2.17 -5.54,-3.87 -8.86,-3.55 -5.22,0.51 -4.53,9.34 -4.53,9.34 z"
       style="fill:#f79329;fill-rule:nonzero"
       id="path24" /><path
       d="m 10.51,88.25 c 0,0 1.97,-2.59 7.33,-3.05 12.51,-1.08 21.13,7.81 21.13,7.81 l 0.67,4.23 c 0,0 -9.83,-11.61 -21.9,-10.68 -5.83,0.45 -7.24,4.02 -7.24,4.02 v -2.33 z"
       style="fill:#f79329;fill-rule:nonzero"
       id="path25" /></g><ellipse
     cx="24.540001"
     cy="92.010002"
     rx="13.12"
     ry="12.75"
     style="fill:none"
     id="ellipse25" /><g
     transform="matrix(1.04323,-0.105528,0.105528,1.04323,-15.7446,5.74995)"
     id="g27"><path
       d="M70.326,31.373C67.946,33.651 67.007,29.712 65.482,26.925C64.635,25.377 62.863,23.982 62.83,22.56C62.773,20.06 62.26,20.17 61.2,19.54C61.2,19.54 59.85,22.335 59.168,22.56C58.486,22.785 57.417,22.075 57.11,20.89L56.5,18.53C56.236,17.508 55.494,16.673 54.51,16.29C54.51,16.29 47.15,14.697 48.362,8.971C49.253,4.762 50.263,9.735 57.96,6.15C59.211,5.567 61.53,5.482 62.83,5.612C68.85,6.202 72.859,11.379 71.099,17.161C69.705,21.74 75.809,26.121 70.326,31.373Z"
       style="fill:#47352d;fill-rule:nonzero"
       id="path26" /></g></svg>

<?xml version="1.0" encoding="UTF-8" standalone="no"?><!DOCTYPE svg PUBLIC "-//W3C//DTD SVG 1.1//EN" "http://www.w3.org/Graphics/SVG/1.1/DTD/svg11.dtd"><svg width="128px" height="128px" version="1.1" xmlns="http://www.w3.org/2000/svg" xmlns:xlink="http://www.w3.org/1999/xlink" xml:space="preserve" xmlns:serif="http://www.serif.com/" style="fill-rule:evenodd;clip-rule:evenodd;stroke-linejoin:round;stroke-miterlimit:2;"><path d="M120.76,92.92L117.69,109.42L115.16,108.95C112.548,108.465 110.636,106.165 110.636,103.508C110.636,103.167 110.667,102.826 110.73,102.49L112.79,91.44L120.76,92.92Z" style="fill:#4568ad;fill-rule:nonzero;"/><path d="M89.42,87.75L80.11,94.54L62.49,72.14L73.45,64.14L89.42,87.75Z" style="fill:#9b643c;fill-rule:nonzero;"/><path d="M112.79,91.44L111.13,100.3L83.99,96.9L86.09,85.58L112.79,91.44Z" style="fill:#9b643c;fill-rule:nonzero;"/><g transform="matrix(0.807702,-0.589591,0.589591,0.807702,-37.4393,67.51)"><circle cx="84.77" cy="91.15" r="5.75" style="fill:#9b643c;"/></g><g transform="matrix(0.807702,-0.589591,0.589591,0.807702,-27.1031,53.1812)"><circle cx="67.97" cy="68.14" r="6.78" style="fill:#9b643c;"/></g><path d="M105.12,89.75L103.34,99.32L111.13,100.3L112.79,91.44L105.12,89.75Z" style="fill:#e0e0e0;fill-rule:nonzero;"/><path d="M63.13,61.51C59.53,64.14 58.74,69.19 61.37,72.78L70.46,84.59L82.89,75.52L74.41,63.27C71.78,59.67 66.73,58.88 63.13,61.51Z" style="fill:#1d8cc8;fill-rule:nonzero;"/><g><path d="M31.73,61.64L34.68,67.4L47.04,61.63L43.64,54.98L31.73,61.64Z" style="fill:#9b643c;fill-rule:nonzero;"/><path d="M48.66,60.17L42.26,56.32L51.96,39.22L59.22,43.59L48.66,60.17Z" style="fill:#9b643c;fill-rule:nonzero;"/><g transform="matrix(0.515427,-0.856933,0.856933,0.515427,-27.8825,67.1797)"><circle cx="45.46" cy="58.24" r="3.73" style="fill:#9b643c;"/></g><path d="M25.14,68.78L25.04,68.58C24.713,67.943 24.542,67.237 24.542,66.521C24.542,64.831 25.494,63.277 27,62.51L29.3,61.33C29.937,61.003 30.643,60.832 31.359,60.832C33.049,60.832 34.603,61.784 35.37,63.29L35.47,63.49C36.61,65.71 35.73,68.43 33.51,69.56L31.21,70.74C29.007,71.864 26.27,70.98 25.14,68.78Z" style="fill:#9b643c;fill-rule:nonzero;"/><g transform="matrix(0.515427,-0.856933,0.856933,0.515427,-8.54477,67.7012)"><circle cx="55.59" cy="41.4" r="4.23" style="fill:#9b643c;"/></g><path d="M58.42,36.71C56,35.25 52.86,36.04 51.4,38.46L46.74,46.67L55.09,51.69L60.16,43.73C61.62,41.3 60.84,38.16 58.42,36.71Z" style="fill:#bf3f0c;fill-rule:nonzero;"/></g><g><path d="M57.85,128L41.07,127.96L41.08,125.39C41.089,122.352 43.592,119.858 46.63,119.86L57.87,119.88L57.85,128Z" style="fill:#4568ad;fill-rule:nonzero;"/><path d="M57.89,95.48L48.17,89.3L62.59,64.71L74.04,71.99L57.89,95.48Z" style="fill:#9b643c;fill-rule:nonzero;"/><path d="M57.87,119.89L48.86,119.87L47.29,92.55L58.8,92.57L57.87,119.89Z" style="fill:#9b643c;fill-rule:nonzero;"/><g transform="matrix(0.536504,-0.843897,0.843897,0.536504,-53.3848,87.5711)"><circle cx="53.03" cy="92.39" r="5.75" style="fill:#9b643c;"/></g><g transform="matrix(0.536504,-0.843897,0.843897,0.536504,-26.0147,89.3264)"><circle cx="68.31" cy="68.35" r="6.78" style="fill:#9b643c;"/></g><path d="M58.14,112.04L48.41,112.02L48.86,119.87L57.87,119.89L58.14,112.04Z" style="fill:#e0e0e0;fill-rule:nonzero;"/><path d="M72.72,61.42C68.984,59.046 63.956,60.165 61.58,63.9L53.9,76.67L66.88,84.92L75.19,72.56C77.59,68.8 76.48,63.82 72.72,61.42Z" style="fill:#42ade7;fill-rule:nonzero;"/></g><g><path d="M58.83,25.25L60.41,33.73C60.69,35.22 59.71,36.65 58.22,36.92L55.97,37.34C54.69,37.58 53.41,36.88 52.92,35.66L47.14,21.21L58.83,25.25Z" style="fill:#9b643c;fill-rule:nonzero;"/><path d="M57.91,14.92L59.65,32.31L48.31,33.53C43.04,34.1 38.36,30.14 38.05,24.85L37.67,18.44C37.32,12.51 42.17,7.58 48.1,7.81L50.46,7.9C54.35,8.07 57.52,11.06 57.91,14.92Z" style="fill:#9b643c;fill-rule:nonzero;"/><path d="M42.27,22.03C42.33,22.8 41.86,23.47 41.22,23.52C40.58,23.57 40.01,22.99 39.95,22.21C39.89,21.44 40.36,20.77 41,20.72C41.64,20.67 42.21,21.26 42.27,22.03" style="fill:#444;fill-rule:nonzero;"/></g><path d="M57.49,33.29C56.79,33.48 56.11,33.67 55.4,33.87C51.26,34.38 49.21,38.52 50.55,42.56C53.18,51.06 54.92,59.62 55.78,68.08C55.881,69.133 56.776,69.946 57.834,69.946C58.022,69.946 58.209,69.921 58.39,69.87C64.27,68.23 70.13,66.59 75.94,64.95C74.08,55.94 71.22,46.84 67.36,37.83C65.85,33.81 61.1,31.59 57.49,33.29Z" style="fill:#e65100;fill-rule:nonzero;"/><g><path d="M86.32,57.39L91.03,52.96L82.05,42.68L76.61,47.8L86.32,57.39Z" style="fill:#9b643c;fill-rule:nonzero;"/><path d="M80.2,41.53L78.28,48.75L59.16,44.19L61.33,36L80.2,41.53Z" style="fill:#9b643c;fill-rule:nonzero;"/><g transform="matrix(0.256998,-0.966412,0.966412,0.256998,15.2416,110.115)"><circle cx="79.24" cy="45.14" r="3.73" style="fill:#9b643c;"/></g><path d="M95,61.73L94.84,61.88C93.037,63.576 90.159,63.491 88.46,61.69L86.69,59.81C84.994,58.007 85.079,55.129 86.88,53.43L87.04,53.28C88.843,51.584 91.721,51.669 93.42,53.47L95.19,55.35C96.9,57.17 96.82,60.03 95,61.73Z" style="fill:#9b643c;fill-rule:nonzero;"/><g transform="matrix(0.256998,-0.966412,0.966412,0.256998,6.01507,88.0097)"><circle cx="60.25" cy="40.09" r="4.23" style="fill:#9b643c;"/></g><path d="M54.95,38.68C54.22,41.41 55.85,44.21 58.58,44.93L67.76,47.12L70.27,37.7L61.21,35.04C58.47,34.33 55.67,35.95 54.95,38.68Z" style="fill:#bf3f0c;fill-rule:nonzero;"/></g><g><ellipse id="a" cx="24.54" cy="92.01" rx="13.12" ry="12.75" style="fill:#ed6c30;"/><g><path d="M21.81,105.46C21.81,105.46 14.15,97.25 17.16,85.37C18.41,80.44 22.44,78.99 22.44,78.99L25.22,78.99C25.22,78.99 19.71,80.04 18.56,86.17C16.46,97.39 25.93,105.77 25.93,105.77L21.81,105.46Z" style="fill:#f79329;fill-rule:nonzero;"/><path d="M15.89,81.78C15.89,81.78 15.61,83.96 18.52,83.96C24.63,83.96 28.04,79.99 32.93,81.24L30.38,79.97C30.38,79.97 28.91,79.69 27.64,80.1C26.36,80.51 21.86,82.84 19.03,82.88C16.02,82.93 17.23,80.83 17.23,80.83L15.89,81.78ZM10.97,95.96C10.97,95.96 12.1,89.17 17.28,88.62C21.65,88.15 24.74,90.21 27.7,92.35C33.05,96.22 35.56,101.13 35.56,101.13L33.73,103.87C33.73,103.87 32.32,99.46 26.14,93.7C23.81,91.53 20.6,89.83 17.28,90.15C12.06,90.66 12.75,99.49 12.75,99.49L10.97,95.96Z" style="fill:#f79329;fill-rule:nonzero;"/><path d="M10.51,88.25C10.51,88.25 12.48,85.66 17.84,85.2C30.35,84.12 38.97,93.01 38.97,93.01L39.64,97.24C39.64,97.24 29.81,85.63 17.74,86.56C11.91,87.01 10.5,90.58 10.5,90.58L10.5,88.25L10.51,88.25Z" style="fill:#f79329;fill-rule:nonzero;"/></g><ellipse cx="24.54" cy="92.01" rx="13.12" ry="12.75" style="fill:none;"/></g><g transform="matrix(1.04323,-0.105528,0.105528,1.04323,-15.7446,5.74995)"><path d="M70.326,31.373C67.946,33.651 67.007,29.712 65.482,26.925C64.635,25.377 62.863,23.982 62.83,22.56C62.773,20.06 62.26,20.17 61.2,19.54C61.2,19.54 59.85,22.335 59.168,22.56C58.486,22.785 57.417,22.075 57.11,20.89L56.5,18.53C56.236,17.508 55.494,16.673 54.51,16.29C54.51,16.29 47.15,14.697 48.362,8.971C49.253,4.762 50.263,9.735 57.96,6.15C59.211,5.567 61.53,5.482 62.83,5.612C68.85,6.202 72.859,11.379 71.099,17.161C69.705,21.74 75.809,26.121 70.326,31.373Z" style="fill:#47352d;fill-rule:nonzero;"/></g></svg>
